arkscan/icons/htx.svg

<svg width="200" height="202" viewBox="0 0 200 202" fill="none" xmlns="http://www.w3.org/2000/svg">
<path d="M120.873 62.0159C121.469 32.5011 104.756 6.78225 96.0512 0.601056C96.0116 0.561254 95.2363 0.143926 95.2957 1.2967C95.2957 1.3165 95.2759 1.3165 95.2759 1.3364C94.3819 57.0872 65.7244 72.1129 50.164 92.5446C15.5848 137.979 44.4403 189.815 81.8215 199.633C82.4581 199.792 84.1868 200.309 87.466 200.984C89.1749 201.343 89.672 199.891 88.4195 197.725C83.9482 189.954 75.9987 176.836 74.4294 159.981C70.8522 120.847 120.177 96.3605 120.873 62.0159Z" fill="#3E5C6C"/>
<path d="M139.713 80.918C139.415 80.6992 138.998 80.719 138.958 81.0962C138.163 88.1922 130.829 102.9 121.171 116.654C88.6582 163.023 105.034 184.051 117.753 198.64C120.098 201.343 121.27 200.747 122.503 198.819C123.655 196.99 125.404 194.665 132.917 191.107C134.089 190.551 162.468 175.485 165.548 141.18C168.51 107.988 147.224 86.9992 139.713 80.918Z" fill="#008CD6"/>
</svg>

<svg width="200" height="202" fill="none" xmlns="http://www.w3.org/2000/svg"><path d="M120.873 62.016C121.469 32.5 104.756 6.782 96.051.6c-.04-.04-.815-.457-.755.696 0 .02-.02.02-.02.04-.894 55.75-29.552 70.776-45.112 91.208-34.58 45.434-5.724 97.27 31.657 107.088.637.159 2.366.676 5.645 1.351 1.709.359 2.206-1.093.954-3.259-4.472-7.771-12.421-20.889-13.99-37.744-3.578-39.134 45.747-63.62 46.443-97.965Z" fill="#3E5C6C"/><path d="M139.713 80.918c-.298-.219-.715-.199-.755.178-.795 7.096-8.129 21.804-17.787 35.558-32.513 46.369-16.137 67.397-3.418 81.986 2.345 2.703 3.517 2.107 4.75.179 1.152-1.829 2.901-4.154 10.414-7.712 1.172-.556 29.551-15.622 32.631-49.927 2.962-33.192-18.324-54.18-25.835-60.262Z" fill="#008CD6"/></svg>
